!!!!SEGMENT: pl-wn--mus-iii-123-982--005_wieniawski-henryk--l-ecole-moderne-etudes-caprices-pour-violon-seul-op-10-5-alla-saltarella.krn
!!!cenid: 18xx:3818
!!!COM: Wieniawski, Henryk
!!!COM-rismID: pe137176
!!!CDT: 1835/07/10-1880/03/31
!!!CNT:
!!!GTL: L'école moderne.Etudes-caprices pour violon seul op. 10
!!!OTL: 5. Alla Saltarella
!!!PDT:
!!!AGN:
!!!SMS-siglum: PL-Wn
!!!SMS-shelfmark: Mus.III.123.982
!!!SMS-shelfwork: 005 G
!!!SMS-variant:
!!!SMS-altvar:
!!!NIFC-rismSourceID:
!!!NIFC-islandoraID:
!!!URL-pdf-islandora:
!!!URL-scan: https://polona.pl/item/l-ecole-moderne-etudes-caprices-pour-violon-seul-op-10,MTE2OTgzMTMy/4/#info:metadata @EN{Scan on Polona} @PL{Skany w portalu Polona}
!!!ONB-nifc:
!!!OMD: Scherzando.
!!!AIN: 1 violn
!!!key: E-
**kern	**fing	**dynam
*I"[Violon seul]	*	*
*mI"Violino Solo	*	*
*Ivioln	*	*
*ICstr	*	*
*IGsolo	*	*
*clefG2	*	*
*k[b-e-a-]	*	*
*E-:	*	*
*M2/4	*	*
=1	=1	=1
4r	.	.
8.r	.	.
32bb-`u\LLL	.	.
(32bb-\JJJ	.	.
=2	=2	=2
16eee-\LL	.	.
16bb-\	.	.
16gg\	.	.
16ee-\JJ)	.	.
(16dd\LL	.	.
16ff\	.	.
16aa-\	.	.
16ccc\JJ)	.	.
=3	=3	=3
(16bb-\LL	.	.
*	*below	*
16gg\	2	.
16ee-\	.	.
16cc\JJ)	.	.
8b-`\L	.	.
16r	.	.
(16b-\Jk	.	.
=4	=4	=4
8cc\L)	.	.
16r	.	.
(16cc\Jk	.	.
8ee-\L)	2	.
16r	.	.
(16ee-\Jk	.	.
=5	=5	=5
4gg\	.	.
8b-\)	.	.
16r	.	.
32bb-`\LLL	.	.
(32bb-\JJJ	.	.
=6	=6	=6
16eee-\LL	.	.
16bb-\	.	.
16gg\	.	.
16ee-\JJ)	.	.
(16dd\LL	.	.
16ff\	.	.
16aa-\	.	.
16ccc\JJ)	.	.
!!LO:LB:g=original
=7	=7	=7
(16bb-\LL	.	.
16gg\	.	.
16ee-\	.	.
16cc\JJ)	.	.
8b-`\L	.	.
16r	.	.
(16b-\Jk	.	.
=8	=8	=8
8cc\L)	.	.
16r	.	.
(16cc\Jk	.	.
*	*above	*
8dd\L)	0	.
*	*below	*
16r	.	.
(16dd\Jk	.	.
=9	=9	=9
4.g/)	.	.
16r	.	.
32bb-`\LLL	.	.
(32bb-\JJJ	.	.
=10	=10	=10
16eee-\LL	.	.
16bb-\	.	.
16gg\	.	.
16ee-\JJ)	.	.
(16dd\LL	.	.
16ff\	.	.
16aa-\	.	.
16ccc\JJ)	.	.
=11	=11	=11
(16bb-\LL	.	.
16gg\	.	.
16ee-\	.	.
16cc\JJ)	.	.
8b-`\L	.	.
16r	.	.
(16b-\Jk	.	.
=12	=12	=12
8cc\L)	.	.
16r	.	.
(16cc\Jk	.	.
8ee-\L)	.	.
16r	.	.
(16ee-\Jk	.	.
!!LO:LB:g=original
=13	=13	=13
4gg\	.	.
8b-\)	.	.
16r	.	.
32bb-`\LLL	.	.
(32bb-\JJJ	.	.
=14	=14	=14
16eee-\LL	.	.
16bb-\	.	.
16gg\	.	.
16ee-\JJ)	.	.
(16dd\LL	.	.
16ff\	.	.
16aa-\	.	.
16ccc\JJ)	.	.
=15	=15	=15
(16bb-\LL	.	.
16gg\	.	.
16ee-\	.	.
16cc\JJ)	.	.
8b-`\L	.	.
16r	.	.
(16b-\Jk	.	.
=16	=16	=16
8cc\L)	.	.
16r	.	.
(16cc\Jk	.	.
8dd\L)	.	.
16r	.	.
(16dd\Jk	.	.
=17	=17	=17
4.g/)	.	.
16r	.	.
32ddd`\LLL	2	.
(32ddd\JJJ	.	.
=18	=18	=18
16ggg\LL	4	.
16ddd\	2	.
16bb-\	4	.
16gg\JJ)	2	.
(16ff#X\LL	1	.
16aan\	3	.
16ccc\	1	.
16eee-\JJ)	3	.
!!LO:LB:g=original
=19	=19	=19
(16ddd\LL	2	.
16bb-\	2	.
16gg\	4	.
16ee-\JJ)	2	.
(16dd\LL	.	.
16ffn\	.	.
16aa-X\	.	.
16ccc\JJ)	.	.
=20	=20	=20
(16bb-\LL	2	.
16gg\	2	.
16ee-\	4	.
16cc\JJ)	2	.
(16bn\LL	.	.
16dd\	.	.
16ff\	.	.
16aa-\JJ)	.	.
=21	=21	=21
(16gg\LL	.	.
16ee-\	.	.
16cc\	.	.
16a-\JJ)	.	.
(16g\LL	.	.
16b-X\	1	.
16dd-X\	1	.
16ff\JJ)	.	.
=22	=22	=22
(16ee-\LL	.	.
16cc\	.	.
16a-\)	.	.
16gg`\JJ	.	.
(16ff\LL	3	.
16dd\	3	.
16b-\)	.	.
16aa-`\JJ	2	.
=23	=23	=23
(16gg\LL	.	.
16ee-\	.	.
16cc\)	.	.
16bb-`\JJ	2	.
(16aa-\LL	.	.
16ff\	.	.
16dd\)	.	.
16ccc`\JJ	.	.
!!LO:LB:g=original
=24	=24	=24
(16bb-\LL	.	.
16bbb-\)	.	.
(16fff#X\	.	.
16ggg\	.	.
*	*above	*
16ddd\	2	.
16eee-\	.	.
16bbn\	.	.
16ccc\JJ	.	.
=25	=25	=25
16gg\LL	.	.
16aa-\	.	.
16een\	.	.
16ff\JJ	.	.
16bn/LL	.	.
16cc/	.	.
16a-/	.	.
16f/JJ	.	.
=26	=26	=26
8b-X\L)	.	.
(16bb-'\L	.	.
16gg'\J	.	.
16ee-X'\L	.	.
16b-'\	.	.
16g'\	.	.
16e-'\JJ	.	.
=27	=27	=27
8B-'/)	.	.
8r	.	.
!LO:TX:b:i:t=pizz.	!	!
8B-/ 8f 8dd 8bb-	.	.
16r;	.	.
!LO:TX:a:i:t=arco.	!	!
32b-`/LLL	.	.
(32b-/JJJ	.	.
=28	=28	=28
16ee-/LL	.	.
16b-/	.	.
16g/	.	.
16e-/JJ)	.	.
(16d/LL	.	.
16f/	.	.
16a-/	.	.
16cc/JJ)	.	.
!!LO:LB:g=original
=29	=29	=29
(16b-/LL	.	.
16g/	.	.
16e-/	.	.
16B-/JJ)	.	.
16G/LL	.	.
(16g/	.	.
16a-sS</)	.	.
&(16g/JJ	.	.
=30	=30	=30
*^	*	*
4ryy	16cc\LL&)	.	.
.	(16g\	.	.
.	16ee-\)	.	.
.	(16g\J	.	.
8ryy	16dd\L)	.	.
.	(16g\	.	.
16ryy	16gg\)	.	.
*v	*v	*	*
32rdd	.	.
*^	*	*
!	!LO:N:vis=16	!	!
32cc`u/	32cc\JJk	.	.
*v	*v	*	*
=31	=31	=31
*	*below	*
(16ccc'\LL	4	.
16gg'\	1	.
16ee-'\	3	.
16cc'\JJ	1	.
8c'/)	.	.
16r	.	.
32ff`\LLL	.	.
(32ff\JJJ	.	.
=32	=32	=32
16bb-\LL	.	.
16ff\	.	.
16dd\	.	.
16b-\JJ)	.	.
(16an\LL	.	.
16cc\	.	.
16ee-\	.	.
16gg\JJ)	.	.
=33	=33	=33
(16ff\LL	.	.
16dd\	.	.
16b-\	.	.
16f\JJ)	.	.
16d`/LL	.	.
(16f/	.	.
16gsSss</)	.	.
&(16fny/JJ	.	.
!!LO:LB:g=original
=34	=34	=34
*^	*	*
!	!LO:TX:t=P:problem:koniec łuku na górze	!	!
4ryy	16b-\LL&)	.	.
.	(16f\	.	.
.	16dd\)	.	.
.	(16f\J	.	.
8.ryy	16cc\L)	.	.
.	(16f\	.	.
.	16ff\)	.	.
32r	32ryy	.	.
!	!LO:N:vis=16	!	!
32b-`u/	32b-\JJ	.	.
*v	*v	*	*
=35	=35	=35
(16bb-'\LL	.	.
16ff'\	.	.
16dd'\	.	.
16b-'\JJ	.	.
8B-'/)	.	.
!LO:TX:a:i:t=dolce.	!	!
16r;	.	.
16bb-^^\	.	.
=36	=36	=36
*^	*	*
!LO:TX:b:i:t=Marquez bien le chant.:mod=	!	!	!
!LO:MO:mod=!null:null	!	!	!
!LO:N:vis=8	!	!	!
((16ccc^u/LL	16r	.	.
8reee	(>16aa-\LL	.	.
.	16dd\JJ)	.	.
!LO:MO:mod=!null:null	!	!	!
!LO:N:vis=8	!	!	!
16ccc^/JJ)	16r	.	.
!LO:TX:a:i:t=Seque:mod=	!	!	!
16bb-^\LL	4ryy	.	.
16gg\	.	.	.
16ee-\	.	.	.
*	*	*below	*
16ggg^\JJ)	.	4	.
*v	*v	*	*
=37	=37	=37
(16fff^^\LL	3	.
16ddd\	1	.
16aa-\	2	.
16fff\JJ	.	.
16eee-\LL	2	.
16bb-\	3	.
16gg\	1	.
16bb-\JJ)	2	.
=38	=38	=38
(16ccc\LL	.	.
16aa-\	.	.
16dd\	.	.
16ccc\JJ	.	.
16bb-\LL	.	.
16gg\	.	.
16ee-\	.	.
16ggg\JJ)	.	.
!!LO:LB:g=original
=39	=39	=39
(16fff\LL	.	.
16ddd\	.	.
16aa-\	.	.
16fff\JJ	.	.
16eee-\LL	.	.
16bb-\	.	.
16gg\	.	.
16eee-\JJ)	.	.
=40	=40	=40
(16ddd\LL	.	.
16aan\	.	.
16dd\	.	.
16ccc\JJ	.	.
16bb-\LL	.	.
16gg\	.	.
16dd\	.	.
16bb-\JJ)	.	.
=41	=41	=41
(16aan\LL	.	.
16een\	.	.
16an\	.	.
16gg\JJ	.	.
16ff\LL	.	.
16a\	.	.
16d\	.	.
16ff\JJ)	.	.
=42	=42	=42
*Xbrackettup	*	*
!LO:TUP:a:problem:klamra łukowa	!	!
!LO:TUP:a:r=4:num=6	!	!
24een`/LL	.	.
(24b-/	.	.
24G/)JJ	.	.
(24G/LL	.	.
24b-/	.	.
24ee/JJ)	.	.
!LO:MO:mod=*null:null	!	!
*Xtuplet	*	*
!LO:MO:mod=!LO&colon;TUP&colon;a&colon;r=4:num=6	!	!
!null	!	!
(24dd/LL	.	.
24f/	.	.
24An/JJ)	.	.
(24A/LL	.	.
24f/	.	.
24dd/JJ)	.	.
=43	=43	=43
!LO:MO:mod=!LO&colon;TUP&colon;a&colon;r=4:num=6	!	!
!null	!	!
(24cc#X/LL	.	.
24en/	.	.
24An/JJ)	.	.
!LO:SIC:s=(24ALL	!	!
24A/LL	.	.
24e/	.	.
!LO:SIC:s=24cc#JJ)	!	!
24cc#/JJ	.	.
(8dd\L	.	.
16r	.	.
16bb-\Jk)	.	.
!!LO:PB:g=original
=44	=44	=44
(16ccc\LL	.	.
16aa-\	.	.
16dd\	.	.
16ccc\JJ	.	.
16bb-\LL	.	.
16gg\	.	.
16ee-\	.	.
16ggg\JJ)	.	.
=45	=45	=45
(16fff\LL	.	.
16ddd\	.	.
16aa-\	.	.
16fff\JJ	.	.
16eee-\LL	.	.
16bb-\	.	.
16gg\	.	.
16bb-\JJ)	.	.
=46	=46	=46
(16ccc\LL	.	.
16aa-\	.	.
16dd\	.	.
16ccc\JJ	.	.
16bb-\LL	.	.
16gg\	.	.
16ee-\	.	.
16ggg\JJ)	.	.
=47	=47	=47
(16fff\LL	.	.
16ddd\	.	.
16aa-\	.	.
16fff\JJ	.	.
16eee-\LL	.	.
16bb-\	.	.
16gg\	.	.
16eee-\JJ)	.	.
=48	=48	=48
(16ddd\LL	.	.
16aan\	.	.
16dd\	.	.
16ccc\JJ	.	.
16bb-\LL	.	.
16gg\	.	.
16dd\	.	.
16eee-\JJ)	.	.
!!LO:LB:g=original
=49	=49	=49
(16ddd\LL	.	.
16aan\	.	.
16dd\	.	.
16ccc\JJ	.	.
16bb-\LL	.	.
16gg\	.	.
16dd\	.	.
16bb-\JJ)	.	.
=50	=50	=50
(16aan\LL	.	.
16cc\	.	.
16ee-\	.	.
16aa\JJ	.	.
16gg\LL	.	.
16b-\	.	.
16dd\	.	.
16gg\JJ)	.	.
=51	=51	=51
*tuplet	*	*
!LO:TUP:b	!	!
(24ff#X/LL	.	.
24cc/	.	.
24d/)J	.	.
(24d/L	.	.
24cc/	.	.
24ff#/JJ)	.	.
8gg/L	.	.
!LO:TX:t=P:problem:pod nutami + = pizzicato main gauche	!	!
!LO:TX:b:t=+	!	!
8G/J 8d 8b-	.	.
(32qqgg/LLL	.	.
32qqb-/	.	.
32qqd/	.	.
32qqG/JJJ)	.	.
=52	=52	=52
(4G;/	.	.
*cue	*	*
!LO:MO:mod=*null:null	!	!
*Xtuplet	*	*
(48G/LLL	.	.
48B-/	.	.
48d/	.	.
48g/	.	.
48b-/	.	.
48dd/JJJ	.	.
48gg\LLL	.	.
48bb-\	.	.
48ddd\	.	.
*8va	*	*
48ggg\	1	.
48bbb-\	2	.
48dddd\JJJ))	3	.
*Xcue	*	*
=53	=53	=53
8gggg`\L	4	.
8aaaan`\J	4	.
8bbbb-;\	4	.
*X8va	*	*
16r;	.	.
!LO:TX:a:i:t=loco.	!	!
32bb-`u\LLL	.	.
(32bb-\JJJ	.	.
!!LO:LB:g=original
=54	=54	=54
16eee-\LL	.	.
16bb-\	.	.
16gg\	.	.
16ee-\JJ)	.	.
(16dd\LL	.	.
16ff\	.	.
16aa-X\	.	.
16ccc\JJ)	.	.
=55	=55	=55
(16bb-\LL	.	.
16gg\	.	.
16ee-\	.	.
16cc\JJ)	.	.
8b-`\L	.	.
16r	.	.
(16b-\Jk	.	.
=56	=56	=56
8cc\L)	.	.
16r	.	.
(16cc\Jk	.	.
8ee-\L)	.	.
16r	.	.
(16ee-\Jk	.	.
=57	=57	=57
4gg\	.	.
8b-\)	.	.
16r	.	.
32bb-`\LLL	.	.
(32bb-\JJJ	.	.
=58	=58	=58
16eee-\LL	.	.
16bb-\	.	.
16gg\	.	.
16ee-\JJ)	.	.
(16dd\LL	.	.
16ff\	.	.
16aa-\	.	.
16ccc\JJ)	.	.
=59	=59	=59
(16bb-\LL	.	.
16gg\	.	.
16ee-\	.	.
16cc\JJ)	.	.
8b-`\L	.	.
16r	.	.
(16b-\Jk	.	.
!!LO:LB:g=original
=60	=60	=60
8cc\L)	.	.
16r	.	.
(16cc\Jk	.	.
8dd\L)	.	.
16r	.	.
(16dd\Jk	.	.
=61	=61	=61
4.g/)	.	.
16r	.	.
32bb-`\LLL	1	.
32bb-\JJJ	.	.
=62	=62	=62
(16eee-\LL	4	.
16bb-\	.	.
16gg\	.	.
16ee-\JJ)	.	.
(16een\LL	1	.
16gg\	.	.
16ccc\	.	.
16eeen\JJ)	.	.
=63	=63	=63
(16fff\LL	4	.
16ccc\	.	.
16aa-\	.	.
16ff\JJ)	.	.
(16ff#X\LL	1	.
16aan\	.	.
16ddd\	.	.
16fff#X\JJ)	.	.
=64	=64	=64
(16ggg\LL	4	.
16ddd\	.	.
16bb-\	.	.
16gg\JJ)	.	.
16aa-X`\LL	1	.
(16ggg\	3	.
16fffT\)	2	.
(16aa-\JJ	1	.
!!LO:LB:g=original
=65	=65	=65
16gg\LL)	1	.
16bb-`\	3	.
16eee-`\	2	.
16bbb-`\JJ	4	.
16gg-X`\LL	1	.
(16fff\	.	.
16eee-T\)	.	.
(16gg-\JJ	.	.
=66	=66	=66
16ff\LL)	1	.
16aa-`\	.	.
16ddd-X`\	.	.
16aaa-`\JJ	.	.
16een\LL	1	.
(16ddd#X\	.	.
16ccc#XT\)	.	.
(16ee\JJ	.	.
=67	=67	=67
16dd#X\LL)	.	.
16ff#X`\	.	.
16bbn`\	.	.
16fff#X`\JJ	.	.
16ddn`\LL	.	.
(16ccc#X\	.	.
16bbT\)	.	.
(16dd\JJ	.	.
=68	=68	=68
16cc#X\LL)	.	.
16een`\	.	.
16aan`\	.	.
16eeen`\JJ	.	.
16cc#`\LL	1	.
(16bb#X\	.	.
16aa#XT\)	.	.
(16cc#\JJ	1	.
=69	=69	=69
16ccn\LL)	1	.
16ee-X`\	.	.
16aa-X`\	.	.
16eee-X`\JJ	.	.
(16ccc\LL	2	.
16aaa-\)	4	.
(16eee-\	1	.
16cccc\JJ)	4	.
!!LO:LB:g=original
=70	=70	=70
8aaa-\	.	.
!LO:TX:t=P:problem:up bow symbol inverted	!	!
(4eeee-v\	.	.
8An/)	.	.
=71	=71	=71
(4B-T/	.	.
4b-T\)	.	.
=72	=72	=72
4bb-T\	.	.
(4bbb-T\	.	.
16qqaaan\LL	.	.
16qqbbb-\JJ)	.	.
=73	=73	=73
*8va	*	*
(16ffff\LL	4	.
16dddd\	4	.
16bbb-\	.	.
16fff\JJ)	.	.
(16ddd\LL	.	.
16fff\	.	.
16aaa-\	.	.
16cccc\JJ)	.	.
=74	=74	=74
(16bbb-\LL	2	.
16aaa-\	3	.
16fff\	.	.
16ddd\JJ)	.	.
(16bb-\LL	.	.
16ddd\	.	.
16fff\	.	.
16aaa-\JJ)	.	.
*X8va	*	*
=75	=75	=75
!LO:TX:a:i:t=loco.	!	!
(16fff\LL	1	.
16ddd\	4	.
16bb-\	.	.
16aa-\JJ	.	.
16ff\LL	3	.
16dd\	3	.
16b-\	.	.
16a-\JJ)	.	.
!!LO:LB:g=original
=76	=76	=76
(16f\LL	.	.
16a-\	.	.
16b-\	.	.
*	*above	*
16dd\J	1	.
16ff\L	.	.
16aa-\	.	.
16bb-\	.	.
16ddd\JJ)	.	.
=77	=77	=77
(16eee-\LL	.	.
16bb-\	.	.
16gg\	.	.
16ee-\JJ)	.	.
(16dd\LL	.	.
16ff\	.	.
16aa-\	.	.
16ccc\JJ)	.	.
=78	=78	=78
(16bb-\LL	.	.
16gg\	.	.
16ee-\	.	.
16cc\JJ)	.	.
8b-`\L	.	.
16r	.	.
(16b-\Jk	.	.
=79	=79	=79
16ee-/LL	.	.
16b-/	.	.
16g/	.	.
16e-/JJ)	.	.
(16d/LL	.	.
16f/	.	.
16a-/	.	.
16cc/JJ)	.	.
=80	=80	=80
!LO:SIC:s=(16b-LL	!	!
((16b-/LL	.	.
16g/	.	.
16e-/	.	.
!LO:SIC:s=16B-JJ	!	!
16B-/JJ)	.	.
8G/)	.	.
16r	.	.
32bb-`\LLL	.	.
(32bb-\JJJ	.	.
!!LO:LB:g=original
=81	=81	=81
16eee-\LL	.	.
16bb-\	.	.
16gg\	.	.
16ee-\JJ)	.	.
(16dd\LL	.	.
16ff\	.	.
16aa-\	.	.
16ccc\JJ)	.	.
=82	=82	=82
(16bb-\LL	.	.
16gg\	.	.
16ee-\	.	.
16b-\JJ)	.	.
(16a-\LL	.	.
16cc-X\	.	.
16dd\	.	.
16ff\JJ)	.	.
=83	=83	=83
(16ee-/LL	.	.
16b-/	.	.
16g/	.	.
16e-/JJ)	.	.
(16d/LL	.	.
16f/	.	.
16a-/	.	.
16ccn/JJ)	.	.
=84	=84	=84
(16b-/LL	.	.
16g/	.	.
16e-/	.	.
16B-/JJ)	.	.
(16A-/LL	.	.
16c-X/	.	.
16d/	.	.
16f/JJ)	.	.
=85	=85	=85
(16e-/LL	.	.
16B-/	.	.
16G/	.	.
16B-/JJ)	.	.
(16A-/LL	.	.
16c-X/	.	.
16d/	.	.
16f/JJ)	.	.
!!LO:LB:g=original
=86	=86	=86
!LO:TX:b:i:t=morendo:problem:text with extention lines	!	!
(16e-/LL	.	.
16B-/	.	.
16G/	.	.
16B-/JJ)	.	.
(16A-/LL	.	.
16c-X/	.	.
16d/	.	.
16f/JJ)	.	.
=87	=87	=87
(16e-/LL	.	.
16B-/	.	.
16G/	.	.
16B-/JJ)	.	.
(16A-/LL	.	.
16c-X/	.	.
16d/	.	.
16f/JJ)	.	.
=88	=88	=88
(16e-/LL	.	.
16B-/	.	.
16G/	.	.
16B-/JJ)	.	.
(16A-/LL	.	.
16c-X/	.	.
16d/	.	.
16f/JJ)	.	.
=89	=89	=89
(16e-/LL	.	p
16G/)	.	.
(16B-/	.	.
16e-/J	.	.
16g/L	1	.
16b-/	.	.
16ee-/	.	.
16gg/JJ	1	.
=90	=90	=90
*8va	*below	*
16bb-\LL	3	.
16eee-\	2	.
16ggg\	1	.
16bbb-\JJ)	3	.
8eeee-\L	4	.
8ffff\J	4	.
=91	=91	=91
4gggg;\	4	pp
*X8va	*	*
8G/ 8e- 8ee-	.	f
8r;	.	.
==	==	==
*-	*-	*-
!!LO:MO:ori
!!!RDF**kern: > = above
!!!RDF**kern: < = below
!!LO:MO:end
!!!filter-modern: sic -sq | autostem -r | shed -k -e "s/[<>]//g" | shed -e "s/TX(.*):t=P:/tx$1:t=P:/LG" | modori -m
!!!ENC: Berenika Jozajtis
!!!END: 2022-05-06
!!!ENC: Katarzyna Serwa
!!!END: 2022-05-18
!!!ENC-modern: Marta Lawrence
!!!END-modern: 2022-07-19
